assets/icons/qvision/camera.svg

<svg xmlns="http://www.w3.org/2000/svg" height="24" viewBox="0 0 24 24" width="24"><path d="M0 0h24v24H0z" fill="none"/><path d="M9.4 10.5l4.77-8.26C13.47 2.09 12.75 2 12 2c-2.4 0-4.6.85-6.32 2.25l3.66 6.35.06-.1zM21.54 9c-.92-2.92-3.15-5.26-6-6.34L11.88 9h9.66zm.26 1h-7.49l.29.5 4.76 8.25C21 16.97 22 14.61 22 12c0-.69-.07-1.35-.2-2zM8.54 12l-3.9-6.75C3.01 7.03 2 9.39 2 12c0 .69.07 1.35.2 2h7.49l-1.15-2zm-6.08 3c.92 2.92 3.15 5.26 6 6.34L12.12 15H2.46zm11.27 0l-3.9 6.76c.7.15 1.42.24 2.17.24 2.4 0 4.6-.85 6.32-2.25l-3.66-6.35-.93 1.6z"/></svg>

<svg width="24" height="24" viewBox="0 0 24 24" fill="none" xmlns="http://www.w3.org/2000/svg">
<g clip-path="url(#clip0_147_3273)">
<path d="M9.4 10.5L14.17 2.24C13.47 2.09 12.75 2 12 2C9.6 2 7.4 2.85 5.68 4.25L9.34 10.6L9.4 10.5ZM21.54 9C20.62 6.08 18.39 3.74 15.54 2.66L11.88 9H21.54ZM21.8 10H14.31L14.6 10.5L19.36 18.75C21 16.97 22 14.61 22 12C22 11.31 21.93 10.65 21.8 10ZM8.54 12L4.64 5.25C3.01 7.03 2 9.39 2 12C2 12.69 2.07 13.35 2.2 14H9.69L8.54 12ZM2.46 15C3.38 17.92 5.61 20.26 8.46 21.34L12.12 15H2.46ZM13.73 15L9.83 21.76C10.53 21.91 11.25 22 12 22C14.4 22 16.6 21.15 18.32 19.75L14.66 13.4L13.73 15Z" fill="#323232"/>
</g>
<defs>
<clipPath id="clip0_147_3273">
<rect width="24" height="24" fill="white"/>
</clipPath>
</defs>
</svg>
